X:1
T:Lady Iveagh
M:2/4
L:1/8
R:Air
B:Bunting manuscripts
N:Bunting obtained the tune from harper Arthur O'Neill in 1792
K:Gmin
{AGF}G2 cA|G2 A/G/F/D/|F2 zG|F2 G/F/D/C/|
{GAG}A2 zG|A/c/d cA|FEFA|G2 z2:||
|:{g}f>efg|f2 g/f/d/c/|gf f/g/a|g2 a/g/f/d/|
f2 zg|f2 =ef|g4|d2=e2|
g3 f/g/|agfa|g2 f<d|fdcf|
d2 cA|c2 {d}cA/G/|F>EFA|G2-Gz:|]

